;FLAVOR:Marlin
;LAYER_COUNT
;LAYER:0
M140 S60
G1 F600 Z0.2
G1 F2400 E0
G1 F1800 X93.471 Y91.582 E0.02995
G1 X95.115 Y90.329 E0.1262
G1 X95.651 Y89.981 E0.15595
G1 X97.31 Y89.077 E0.24393
G1 X97.934 Y88.784 E0.27603
G1 X98.227 Y88.667 E0.29072
G1 X100.003 Y88.03 E0.37858
G1 X100.62 Y87.86 E0.40838
;LAYER:1
M106 S216.8
M204 S1800
M205 X8 Y8
;TYPE:WALL-INNER
;MESH:testGCode.gcode
G1 F4500 X109.291 Y93.05 E50.51166
G1 X111.063 Y93.845 E50.57625
G1 X112.703 Y94.908 E50.64126
;LAYER:2
;LAYER:3